images/illus_explore.svg

<svg width="200" height="200" viewBox="0 0 200 200" fill="none" xmlns="http://www.w3.org/2000/svg">
<g id="illus_explore">
<path id="Fill 2" opacity="0.3" fill-rule="evenodd" clip-rule="evenodd" d="M95.6006 130.624L80.8926 122.13L69.5796 128.664L84.2866 137.157L95.6006 130.624ZM112.44 140.771L98.8636 132.931L87.5496 139.465L101.126 147.305L112.44 140.771ZM128.582 149.938L116.703 143.078L105.389 149.611L117.268 156.472L128.582 149.938ZM150.078 137.524L132.542 127.397L116.703 136.544L134.239 146.672L150.078 137.524ZM126.017 126.397L112.44 118.557L98.8636 126.397L112.44 134.237L126.017 126.397ZM95.6006 124.091L82.0236 116.25L91.0756 111.023L109.177 116.25L95.6006 124.091Z" fill="#90D98B"/>
<path id="Fill 4" opacity="0.8" fill-rule="evenodd" clip-rule="evenodd" d="M113.439 114.805C111.658 114.805 110.213 113.361 110.213 111.578C110.213 109.797 111.658 108.353 113.439 108.353C115.221 108.353 116.665 109.797 116.665 111.578C116.665 113.361 115.221 114.805 113.439 114.805M113.439 102.977C108.689 102.977 104.837 106.828 104.837 111.578C104.837 118.299 111.356 124.482 113.439 124.482C115.522 124.482 122.041 118.299 122.041 111.578C122.041 106.828 118.19 102.977 113.439 102.977" fill="#90D98B"/>
<path id="Fill 6" fill-rule="evenodd" clip-rule="evenodd" d="M70.8853 85.0127L63.8133 89.0947C61.6783 90.3267 59.8933 93.4647 59.4833 96.4937L50.5533 101.649L50.5543 104.098L59.4833 98.9437C59.8943 101.499 61.6793 102.576 63.8143 101.344L70.8863 97.2617C73.0213 96.0297 74.8063 92.8927 75.2173 89.8627L89.4503 81.6477L89.4493 79.1977L75.2163 87.4127C74.8053 84.8577 73.0203 83.7817 70.8853 85.0127V85.0127ZM71.6773 55.1587C71.2653 52.6027 69.4803 51.5267 67.3453 52.7597L60.2733 56.8407C58.1383 58.0737 56.3533 61.2107 55.9433 64.2407L50.5503 67.3527V69.8027L55.9433 66.6897C56.3543 69.2447 58.1393 70.3217 60.2753 69.0897L67.3463 65.0077C69.4823 63.7747 71.2663 60.6377 71.6773 57.6087L89.4463 47.3517V44.9027L71.6773 55.1587ZM84.0543 65.1627L89.4473 62.0497L89.4483 64.4997L84.0543 67.6127C83.6443 70.6417 81.8603 73.7797 79.7243 75.0117L72.6533 79.0937C70.5173 80.3257 68.7323 79.2487 68.3213 76.6937L50.5523 86.9497V84.5007L68.3213 74.2437C68.7313 71.2147 70.5163 68.0777 72.6513 66.8457L79.7233 62.7627C81.8583 61.5307 83.6433 62.6077 84.0543 65.1627V65.1627Z" fill="#90D98B"/>
</g>
</svg>

<svg width="200" height="200" xmlns="http://www.w3.org/2000/svg"><g fill="none" fill-rule="evenodd"><path d="M0 200h200V0H0z"/><path d="M95.6 130.624l-14.707-8.494-11.313 6.534 14.707 8.493 11.314-6.533zm16.84 10.147l-13.576-7.84-11.314 6.534 13.576 7.84 11.314-6.534zm16.142 9.167l-11.88-6.86-11.313 6.533 11.879 6.861 11.314-6.534zm21.496-12.414l-17.536-10.127-15.84 9.147 17.537 10.128 15.839-9.148zm-24.061-11.127l-13.577-7.84-13.576 7.84 13.576 7.84 13.577-7.84zM95.6 124.091l-13.577-7.841 9.052-5.227 18.1 5.227-13.575 7.841z" fill="#90D98B" opacity=".3"/><path d="M113.44 114.805a3.226 3.226 0 1 1 0-6.453 3.226 3.226 0 0 1 0 6.453m0-11.828a8.602 8.602 0 0 0-8.602 8.6c0 6.722 6.519 12.905 8.602 12.905 2.082 0 8.602-6.183 8.602-12.904a8.601 8.601 0 0 0-8.603-8.601" fill="#90D98B" opacity=".8"/><path d="M70.885 85.013l-7.072 4.082c-2.135 1.232-3.92 4.37-4.33 7.399l-8.93 5.155.001 2.449 8.93-5.154c.41 2.555 2.195 3.632 4.33 2.4l7.072-4.082c2.135-1.232 3.92-4.37 4.331-7.4l14.233-8.214v-2.45l-14.234 8.215c-.41-2.555-2.196-3.631-4.33-2.4zm.792-29.854c-.412-2.556-2.197-3.632-4.332-2.4l-7.072 4.082c-2.135 1.233-3.92 4.37-4.33 7.4l-5.393 3.112v2.45l5.393-3.113c.411 2.555 2.196 3.632 4.332 2.4l7.071-4.082c2.136-1.233 3.92-4.37 4.331-7.4l17.77-10.256v-2.45L71.676 55.16zm12.377 10.004l5.393-3.113.001 2.45-5.394 3.113c-.41 3.029-2.194 6.167-4.33 7.399l-7.07 4.082c-2.137 1.232-3.922.155-4.333-2.4L50.552 86.95V84.5l17.77-10.256c.41-3.03 2.194-6.166 4.33-7.398l7.071-4.083c2.135-1.232 3.92-.155 4.331 2.4z" fill="#90D98B"/></g></svg>
